;Generated by Cura LulzBot Edition GCodeWriter Version: 3.2.27
;FLAVOR:Marlin
;TIME:4817
;Filament used: 2.23591m
;Layer height: 0.25
;Generated with Cura_SteamEngine 3.2.27
M82 ;absolute extrusion mode
;This G-Code has been generated specifically for the LulzBot TAZ 6 with standard extruder
M75 ; start GLCD timer
G26 ; clear potential 'probe fail' condition
G21 ; set units to Millimetres
M107 ; disable fans
M420 S0 ; disable previous leveling matrix
G90 ; absolute positioning
M82 ; set extruder to absolute mode
G92 E0 ; set extruder position to 0
M140 S85 ; start bed heating up
M109 R170 ; soften filament before homing Z
G28 ; Home all axis
G1 E-30 F100 ; retract filament
M109 R170 ; wait for extruder to reach wiping temp
G1 X-15 Y100 F3000 ; move above wiper pad
G1 Z1 ; push nozzle into wiper
G1 X-17 Y95 F1000 ; slow wipe
G1 X-17 Y90 F1000 ; slow wipe
G1 X-17 Y85 F1000 ; slow wipe
G1 X-15 Y90 F1000 ; slow wipe
G1 X-17 Y80 F1000 ; slow wipe
G1 X-15 Y95 F1000 ; slow wipe
G1 X-17 Y75 F2000 ; fast wipe
G1 X-15 Y65 F2000 ; fast wipe
G1 X-17 Y70 F2000 ; fast wipe
G1 X-15 Y60 F2000 ; fast wipe
G1 X-17 Y55 F2000 ; fast wipe
G1 X-15 Y50 F2000 ; fast wipe
G1 X-17 Y40 F2000 ; fast wipe
G1 X-15 Y45 F2000 ; fast wipe
G1 X-17 Y35 F2000 ; fast wipe
G1 X-15 Y40 F2000 ; fast wipe
G1 X-17 Y70 F2000 ; fast wipe
G1 X-15 Y30 Z2 F2000 ; fast wipe
G1 X-17 Y35 F2000 ; fast wipe
G1 X-15 Y25 F2000 ; fast wipe
G1 X-17 Y30 F2000 ; fast wipe
G1 X-15 Y25 Z1.5 F1000 ; slow wipe
G1 X-17 Y23 F1000 ; slow wipe
G1 Z10 ; raise extruder
M109 R170 ; wait for extruder to reach probe temp
G1 X-9 Y-9 ; move above first probe point
M204 S100 ; set probing acceleration
G29 ; start auto-leveling sequence
M420 S1 ; activate bed level matrix
M425 Z			     ; use measured Z backlash for compensation
M425 Z F0		     ; turn off measured Z backlash compensation. (if activated in the quality settings, this command will automatically be ignored)
M204 S500 ; restore standard acceleration
G1 X0 Y0 Z15 F5000 ; move up off last probe point
G4 S1 ; pause
M400 ; wait for moves to finish
M117 Heating... ; progress indicator message on LCD
M109 R235 ; wait for extruder to reach printing temp
M190 S85 ; wait for bed to reach printing temp
G1 Z2 E0 F75 ; prime tiny bit of filament into the nozzle
M117 TAZ 6 Printing... ; progress indicator message on LCD

M221 S100
;LAYER_COUNT:12
;LAYER:0
M107
G0 F2625 X76.66 Y85.838 Z0.425
;TYPE:SKIRT
G1 F900 X77.047 Y85.506 E0.01614
G1 X77.482 Y85.24 E0.03227
G1 X77.952 Y85.044 E0.04839
G1 X78.447 Y84.925 E0.0645
G1 X78.96 Y84.884 E0.08078
G1 X159.045 Y84.885 E2.61506
G1 X159.553 Y84.925 E2.63118
G1 X160.048 Y85.044 E2.64729
G1 X160.519 Y85.239 E2.66343
G1 X160.954 Y85.505 E2.67956
G1 X161.341 Y85.835 E2.69566
G1 X161.694 Y86.252 E2.71294
G1 X165.663 Y91.837 E2.92976
G1 X169.109 Y96.1 E3.10323
G1 X172.761 Y100.13 E3.27533
G1 X176.688 Y103.998 E3.44976
G1 X180.799 Y107.613 E3.62299
G1 X182.885 Y109.295 E3.70779
G1 X187.316 Y112.569 E3.88213
G1 X191.899 Y115.572 E4.05552
G1 X196.618 Y118.295 E4.22793
G1 X202.491 Y121.223 E4.4356
G1 X202.928 Y121.486 E4.45174
G1 X203.318 Y121.813 E4.46785
G1 X203.653 Y122.198 E4.484
G1 X203.923 Y122.63 E4.50012
G1 X204.122 Y123.098 E4.51621
G1 X204.246 Y123.593 E4.53236
G1 X204.291 Y124.132 E4.54947
G1 X204.29 Y155.867 E5.55372
G1 X204.25 Y156.375 E5.56985
G1 X204.131 Y156.87 E5.58596
G1 X203.936 Y157.341 E5.60209
G1 X203.67 Y157.776 E5.61822
G1 X203.34 Y158.163 E5.63432
G1 X202.953 Y158.495 E5.65045
G1 X202.428 Y158.806 E5.66976
G1 X200.256 Y159.832 E5.74578
G1 X195.372 Y162.384 E5.92016
G1 X190.683 Y165.181 E6.09294
G1 X186.138 Y168.255 E6.26657
G1 X181.807 Y171.554 E6.43886
G1 X177.638 Y175.121 E6.61248
G1 X173.667 Y178.926 E6.78652
G1 X171.798 Y180.877 E6.87202
G1 X168.183 Y184.984 E7.04516
G1 X164.797 Y189.3 E7.21875
G1 X161.709 Y193.726 E7.38953
G1 X161.386 Y194.12 E7.40565
G1 X161.005 Y194.458 E7.42177
G1 X160.576 Y194.732 E7.43788
G1 X160.109 Y194.937 E7.45402
G1 X159.616 Y195.065 E7.47014
G1 X159.044 Y195.116 E7.48831
G1 X78.959 Y195.109 E10.02259
G1 X78.451 Y195.069 E10.03871
G1 X77.955 Y194.95 E10.05485
G1 X77.485 Y194.755 E10.07095
G1 X77.05 Y194.489 E10.08709
G1 X76.662 Y194.159 E10.10321
G1 X76.331 Y193.771 E10.11935
G1 X76.065 Y193.337 E10.13546
G1 X75.869 Y192.867 E10.15157
G1 X75.75 Y192.371 E10.16771
G1 X75.709 Y191.859 E10.18397
G1 X75.71 Y88.134 E13.46633
G1 X75.75 Y87.626 E13.48245
G1 X75.869 Y87.131 E13.49856
G1 X76.064 Y86.66 E13.51469
G1 X76.33 Y86.225 E13.53083
G1 X76.66 Y85.838 E13.54692
G1 F600 E12.54692
G0 F2625 X78.285 Y88.889
G0 X79.714 Y88.889
G0 X100.899 Y93.418
G0 X106.859 Y96.006
G0 X106.815 Y96.095
;TYPE:WALL-INNER
G1 F600 E13.54692
G1 F900 X105.493 Y96.095 E13.58876
G1 X103.52 Y94.563 E13.66781
G1 X100.889 Y93.456 E13.75813
G1 X98.061 Y93.068 E13.84846
G1 X95.229 Y93.424 E13.93879
G1 X92.586 Y94.501 E14.0291
G1 X90.491 Y96.095 E14.1124
G1 X89.294 Y96.095 E14.15028
G1 X87.442 Y98.48 E14.24584
G1 X86.335 Y101.111 E14.33617
G1 X85.947 Y103.939 E14.4265
G1 X86.303 Y106.771 E14.51682
G1 X87.38 Y109.414 E14.60713
G1 X89.105 Y111.686 E14.69741
G1 X89.489 Y111.986 E14.71283
G1 X90.611 Y111.986 E14.74833
G1 X92.48 Y113.437 E14.82321
G1 X95.111 Y114.544 E14.91353
G1 X97.939 Y114.932 E15.00386
G1 X100.771 Y114.576 E15.09419
G1 X103.414 Y113.499 E15.1845
G1 X105.407 Y111.986 E15.26369
G1 X106.729 Y111.986 E15.30552
G1 X108.645 Y109.52 E15.40434
G1 X109.751 Y106.889 E15.49466
G1 X110.14 Y104.061 E15.58499
G1 X109.784 Y101.229 E15.67532
G1 X108.706 Y98.586 E15.76564
G1 X106.815 Y96.095 E15.86461
G0 F2625 X106.859 Y96.006
G0 X108.74 Y98.567
G0 X109.615 Y100.714
G0 X116.23 Y119.055
G0 X116.3 Y119.125
G1 F900 X79.7 Y119.125 E17.02281
G1 X79.7 Y88.875 E17.98007
G1 X116.3 Y88.875 E19.13827
G1 X116.3 Y119.125 E20.09553
G0 F2625 X116.8 Y119.625
;TYPE:WALL-OUTER
G1 F900 X79.2 Y119.625 E21.28537
G1 X79.2 Y88.375 E22.27427
G1 X116.8 Y88.375 E23.46412
G1 X116.8 Y119.625 E24.45302
G0 F2625 X116.55 Y119.625
G0 X116.23 Y119.055
G0 X109.822 Y101.219
G0 X108.74 Y98.567
G0 X107.044 Y96.233
G0 X106.567 Y96.595
G1 F900 X105.321 Y96.595 E24.49245
G1 X103.265 Y94.998 E24.57483
G1 X100.756 Y93.942 E24.66098
G1 X98.058 Y93.572 E24.74715
G1 X95.357 Y93.912 E24.8333
G1 X92.836 Y94.939 E24.91944
G1 X90.66 Y96.595 E25.00597
G1 X89.539 Y96.595 E25.04145
G1 X87.877 Y98.735 E25.12719
G1 X86.821 Y101.244 E25.21333
G1 X86.451 Y103.942 E25.29951
G1 X86.791 Y106.643 E25.38566
G1 X87.818 Y109.164 E25.4718
G1 X89.464 Y111.332 E25.55794
G1 X89.661 Y111.486 E25.56585
G1 X90.783 Y111.486 E25.60136
G1 X92.735 Y113.002 E25.67957
G1 X95.244 Y114.058 E25.76571
G1 X97.942 Y114.428 E25.85189
G1 X100.643 Y114.088 E25.93804
G1 X103.164 Y113.061 E26.02418
G1 X105.239 Y111.486 E26.10662
G1 X106.484 Y111.486 E26.14601
G1 X108.21 Y109.265 E26.23502
G1 X109.265 Y106.756 E26.32115
G1 X109.636 Y104.058 E26.40734
G1 X109.296 Y101.357 E26.49348
G1 X108.268 Y98.836 E26.57964
G1 X106.567 Y96.595 E26.66867
G0 F2625 X106.317 Y96.595
G0 X106.317 Y95.995
G0 X105.661 Y95.605
;TYPE:SKIN
G1 F900 X103.769 Y94.136 E26.74447
G1 X101.02 Y92.98 E26.83884
G1 X98.063 Y92.574 E26.93329
G1 X95.104 Y92.946 E27.02766
G1 X92.341 Y94.072 E27.12208
G1 X90.326 Y95.605 E27.2022
G1 X89.055 Y95.605 E27.24242
G1 X87.015 Y98.231 E27.34765
G1 X85.859 Y100.98 E27.44202
G1 X85.453 Y103.937 E27.53647
G1 X85.825 Y106.896 E27.63085
G1 X86.951 Y109.659 E27.72526
G1 X88.754 Y112.033 E27.8196
G1 X89.32 Y112.476 E27.84234
G1 X90.443 Y112.476 E27.87788
G1 X92.231 Y113.864 E27.94951
G1 X94.98 Y115.02 E28.04388
G1 X97.937 Y115.426 E28.13833
G1 X100.896 Y115.054 E28.2327
G1 X103.659 Y113.928 E28.32712
G1 X105.571 Y112.476 E28.40309
G1 X106.968 Y112.476 E28.4473
G1 X109.072 Y109.769 E28.5558
G1 X110.227 Y107.02 E28.65016
G1 X110.634 Y104.063 E28.74461
G1 X110.262 Y101.104 E28.83899
G1 X109.135 Y98.341 E28.93341
G1 X107.058 Y95.605 E29.04212
G1 X105.661 Y95.605 E29.08632
G0 F2625 X115.81 Y89.365
G1 F900 X115.81 Y118.635 E30.01257
G1 X80.19 Y118.635 E31.13976
G1 X80.19 Y89.365 E32.066
G1 X115.81 Y89.365 E33.19319
G0 F2625 X115.585 Y90.129
G1 F900 X115.045 Y89.589 E33.21736
G0 F2625 X114.338 Y89.589
G1 F900 X115.585 Y90.836 E33.27316
G1 X115.673 Y90.924
G0 F2625 X115.585 Y91.543
G1 F900 X113.631 Y89.589 E33.36061
G1 X113.543 Y89.501
G0 F2625 X112.924 Y89.589
G1 F900 X115.585 Y92.25 E33.4797
G1 X115.673 Y92.338
G0 F2625 X115.585 Y92.957
G1 F900 X112.217 Y89.589 E33.63042
G1 X112.129 Y89.501
G0 F2625 X111.51 Y89.589
G1 F900 X115.585 Y93.664 E33.81279
G1 X115.673 Y93.752
G0 F2625 X115.585 Y94.371
G1 F900 X110.802 Y89.589 E34.02682
G1 X110.714 Y89.501
G0 F2625 X110.095 Y89.589
G1 F900 X115.585 Y95.078 E34.27249
G1 X115.673 Y95.166
G0 F2625 X115.585 Y95.786
G1 F900 X109.388 Y89.589 E34.54982
G1 X109.3 Y89.501
G0 F2625 X108.681 Y89.589
G1 F900 X115.585 Y96.493 E34.85879
G1 X115.673 Y96.581
G0 F2625 X115.585 Y97.2
G1 F900 X107.974 Y89.589 E35.1994
G1 X107.886 Y89.501
G0 F2625 X107.267 Y89.589
G1 F900 X115.585 Y97.907 E35.57166
G1 X115.673 Y97.995
G0 F2625 X115.585 Y98.614
G1 F900 X106.56 Y89.589 E35.97555
G1 X106.472 Y89.501
G0 F2625 X105.853 Y89.589
G1 F900 X115.585 Y99.321 E36.41108
G1 X115.673 Y99.409
G0 F2625 X115.585 Y100.028
G1 F900 X105.146 Y89.589 E36.87825
G1 X105.058 Y89.501
G0 F2625 X104.438 Y89.589
G1 F900 X115.585 Y100.735 E37.37709
G1 X115.673 Y100.823
G0 F2625 X115.585 Y101.442
G1 F900 X103.731 Y89.589 E37.90756
G1 X103.643 Y89.501
G0 F2625 X103.024 Y89.589
G1 F900 X115.585 Y102.15 E38.4697
G1 X115.673 Y102.238
G0 F2625 X115.585 Y102.857
G1 F900 X102.317 Y89.589 E39.06347
G1 X102.229 Y89.501
G0 F2625 X101.61 Y89.589
G1 F900 X115.585 Y103.564 E39.68889
G1 X115.673 Y103.652
G0 F2625 X115.585 Y104.271
G1 F900 X108.667 Y97.353 E39.99849
G1 X108.579 Y97.265
G0 F2625 X109.673 Y99.067
G1 F900 X115.585 Y104.978 E40.26304
G1 X115.673 Y105.066
G0 F2625 X115.585 Y105.685
G1 F900 X110.161 Y100.262 E40.50576
G1 X110.073 Y100.174
G0 F2625 X110.515 Y101.322
G1 F900 X115.585 Y106.392 E40.73266
G1 X115.673 Y106.48
G0 F2625 X115.585 Y107.099
G1 F900 X110.616 Y102.131 E40.95501
G1 X110.528 Y102.043
G0 F2625 X110.718 Y102.94
G1 F900 X115.585 Y107.806 E41.1728
G1 X115.673 Y107.894
G0 F2625 X115.585 Y108.514
G1 F900 X110.82 Y103.749 E41.38604
G1 X110.732 Y103.661
G0 F2625 X110.807 Y104.443
G1 F900 X115.585 Y109.221 E41.59987
G1 X115.673 Y109.309
G0 F2625 X115.585 Y109.928
G1 F900 X110.721 Y105.064 E41.81755
G1 X110.633 Y104.976
G0 F2625 X110.636 Y105.686
G1 F900 X115.585 Y110.635 E42.03903
G1 X115.673 Y110.723
G0 F2625 X115.585 Y111.342
G1 F900 X110.55 Y106.307 E42.26436
G1 X110.462 Y106.219
G0 F2625 X110.464 Y106.929
G1 F900 X115.585 Y112.049 E42.49351
G1 X115.673 Y112.137
G0 F2625 X115.585 Y112.756
G1 F900 X110.286 Y107.457 E42.73066
G1 X110.198 Y107.369
G0 F2625 X110.076 Y107.955
G1 F900 X115.585 Y113.463 E42.97718
G1 X115.673 Y113.551
G0 F2625 X115.585 Y114.17
G1 F900 X109.867 Y108.453 E43.23305
G1 X109.779 Y108.365
G0 F2625 X109.658 Y108.951
G1 F900 X115.585 Y114.877 E43.49828
G1 X115.673 Y114.965
G0 F2625 X115.585 Y115.585
G1 F900 X109.449 Y109.449 E43.77288
G1 X109.361 Y109.361
G0 F2625 X109.227 Y109.934
G1 F900 X115.585 Y116.292 E44.05741
G1 X115.673 Y116.38
G0 F2625 X115.585 Y116.999
G1 F900 X108.917 Y110.331 E44.35582
G1 X108.829 Y110.243
G0 F2625 X108.608 Y110.73
G1 F900 X115.585 Y117.706 E44.66804
G1 X115.673 Y117.794
G0 F2625 X115.58 Y118.409
G1 F900 X108.299 Y111.128 E44.99388
G1 X108.211 Y111.04
G0 F2625 X107.99 Y111.525
G1 F900 X114.873 Y118.409 E45.30194
G1 X114.961 Y118.497
G0 F2625 X114.166 Y118.409
G1 F900 X107.681 Y111.923 E45.59218
G1 X107.593 Y111.835
G0 F2625 X107.372 Y112.321
G1 F900 X113.459 Y118.409 E45.86461
G1 X113.547 Y118.497
G0 F2625 X112.752 Y118.409
G1 F900 X107.043 Y112.7 E46.1201
G1 X106.955 Y112.612
G0 F2625 X106.336 Y112.7
G1 F900 X112.045 Y118.409 E46.3756
G1 X112.133 Y118.497
G0 F2625 X111.338 Y118.409
G1 F900 X105.637 Y112.708 E46.63073
G1 X105.549 Y112.62
G0 F2625 X105.235 Y113.013
G1 F900 X110.631 Y118.409 E46.87222
G1 X110.719 Y118.497
G0 F2625 X109.923 Y118.409
G1 F900 X104.833 Y113.318 E47.10003
G1 X104.745 Y113.23
G0 F2625 X104.431 Y113.624
G1 F900 X109.216 Y118.409 E47.31417
G1 X109.304 Y118.497
G0 F2625 X108.509 Y118.409
G1 F900 X104.029 Y113.929 E47.51466
G1 X103.941 Y113.841
G0 F2625 X103.592 Y114.199
G1 F900 X107.802 Y118.409 E47.70307
G1 X107.89 Y118.497
G0 F2625 X107.095 Y118.409
G1 F900 X103.089 Y114.403 E47.88235
G1 X103.001 Y114.315
G0 F2625 X102.587 Y114.607
G1 F900 X106.388 Y118.409 E48.05248
G1 X106.476 Y118.497
G0 F2625 X105.681 Y118.409
G1 F900 X102.085 Y114.812 E48.21343
G1 X101.997 Y114.724
G0 F2625 X101.582 Y115.017
G1 F900 X104.974 Y118.409 E48.36523
G1 X105.062 Y118.497
G0 F2625 X104.267 Y118.409
G1 F900 X101.08 Y115.222 E48.50785
G1 X100.992 Y115.134
G0 F2625 X100.483 Y115.332
G1 F900 X103.56 Y118.409 E48.64556
G1 X103.648 Y118.497
G0 F2625 X102.852 Y118.409
G1 F900 X99.854 Y115.411 E48.77973
G1 X99.766 Y115.323
G0 F2625 X99.226 Y115.49
G1 F900 X102.145 Y118.409 E48.91036
G1 X102.233 Y118.497
G0 F2625 X101.438 Y118.409
G1 F900 X98.598 Y115.569 E49.03746
G1 X98.51 Y115.481
G0 F2625 X97.97 Y115.648
G1 F900 X100.731 Y118.409 E49.16102
G1 X100.819 Y118.497
G0 F2625 X100.024 Y118.409
G1 F900 X97.161 Y115.546 E49.28915
G1 X97.073 Y115.458
G0 F2625 X96.341 Y115.433
G1 F900 X99.317 Y118.409 E49.42233
G1 X99.405 Y118.497
G0 F2625 X98.61 Y118.409
G1 F900 X95.521 Y115.32 E49.56057
G1 X95.433 Y115.232
G0 F2625 X94.595 Y115.101
G1 F900 X97.903 Y118.409 E49.70861
G1 X97.991 Y118.497
G0 F2625 X97.196 Y118.409
G1 F900 X93.375 Y114.588 E49.87961
G1 X93.287 Y114.5
G0 F2625 X92.155 Y114.076
G1 F900 X96.488 Y118.409 E50.07352
G1 X96.576 Y118.497
G0 F2625 X95.781 Y118.409
G1 F900 X90.072 Y112.7 E50.32902
G1 X89.984 Y112.612
G0 F2625 X89.365 Y112.7
G1 F900 X95.074 Y118.409 E50.58451
G1 X95.162 Y118.497
G0 F2625 X94.367 Y118.409
G1 F900 X80.415 Y104.456 E51.20892
G1 X80.327 Y104.368
G0 F2625 X80.415 Y103.749
G1 F900 X87.755 Y111.09 E51.53742
G1 X87.843 Y111.178
G0 F2625 X86.484 Y109.112
G1 F900 X80.415 Y103.042 E51.80905
G1 X80.327 Y102.954
G0 F2625 X80.415 Y102.335
G1 F900 X85.999 Y107.919 E52.05895
G1 X86.087 Y108.007
G0 F2625 X85.586 Y106.799
G1 F900 X80.415 Y101.628 E52.29036
G1 X80.327 Y101.54
G0 F2625 X80.415 Y100.921
G1 F900 X85.484 Y105.991 E52.51724
G1 X85.572 Y106.079
G0 F2625 X85.383 Y105.182
G1 F900 X80.415 Y100.214 E52.73957
G1 X80.327 Y100.126
G0 F2625 X80.415 Y99.506
G1 F900 X85.281 Y104.373 E52.95736
G1 X85.369 Y104.461
G0 F2625 X85.265 Y103.65
G1 F900 X80.415 Y98.799 E53.17443
G1 X80.327 Y98.711
G0 F2625 X80.415 Y98.092
G1 F900 X85.351 Y103.028 E53.39533
G1 X85.439 Y103.116
G0 F2625 X85.436 Y102.406
G1 F900 X80.415 Y97.385 E53.62003
G1 X80.327 Y97.297
G0 F2625 X80.415 Y96.678
G1 F900 X85.521 Y101.785 E53.84856
G1 X85.609 Y101.873
G0 F2625 X85.607 Y101.163
G1 F900 X80.415 Y95.971 E54.08091
G1 X80.327 Y95.883
G0 F2625 X80.415 Y95.264
G1 F900 X85.767 Y100.617 E54.32045
G1 X85.855 Y100.705
G0 F2625 X85.977 Y100.119
G1 F900 X80.415 Y94.557 E54.56937
G1 X80.327 Y94.469
G0 F2625 X80.415 Y93.85
G1 F900 X86.186 Y99.621 E54.82763
G1 X86.274 Y99.709
G0 F2625 X86.395 Y99.123
G1 F900 X80.415 Y93.142 E55.09528
G1 X80.327 Y93.054
G0 F2625 X80.415 Y92.435
G1 F900 X86.604 Y98.625 E55.37227
G1 X86.692 Y98.713
G0 F2625 X86.813 Y98.127
G1 F900 X80.415 Y91.728 E55.65862
G1 X80.327 Y91.64
G0 F2625 X80.415 Y91.021
G1 F900 X87.12 Y97.727 E55.95871
G1 X87.208 Y97.815
G0 F2625 X87.43 Y97.329
G1 F900 X80.415 Y90.314 E56.27265
G1 X80.327 Y90.226
G0 F2625 X80.415 Y89.607
G1 F900 X87.739 Y96.931 E56.60042
G1 X87.827 Y97.019
G0 F2625 X88.048 Y96.533
G1 F900 X81.104 Y89.589 E56.91118
G1 X81.016 Y89.501
G0 F2625 X81.811 Y89.589
G1 F900 X88.357 Y96.136 E57.20415
G1 X88.445 Y96.224
G0 F2625 X88.666 Y95.738
G1 F900 X82.518 Y89.589 E57.47931
G1 X82.43 Y89.501
G0 F2625 X83.225 Y89.589
G1 F900 X89.015 Y95.379 E57.73843
G1 X89.103 Y95.467
G0 F2625 X89.722 Y95.379
G1 F900 X83.932 Y89.589 E57.99755
G1 X83.844 Y89.501
G0 F2625 X84.639 Y89.589
G1 F900 X90.351 Y95.301 E58.25317
G1 X90.439 Y95.389
G0 F2625 X90.752 Y94.995
G1 F900 X85.347 Y89.589 E58.49508
