;Generated by Cura LulzBot Edition GCodeWriter Version: 3.2.27
;FLAVOR:Marlin
;TIME:416
;Filament used: 0.0697796m
;Layer height: 0.25
;Generated with Cura_SteamEngine 3.2.27
M82 ;absolute extrusion mode
;This G-Code has been generated specifically for the LulzBot TAZ 6 with standard extruder
M75 ; start GLCD timer
G26 ; clear potential 'probe fail' condition
G21 ; set units to Millimetres
M107 ; disable fans
M420 S0 ; disable previous leveling matrix
G90 ; absolute positioning
M82 ; set extruder to absolute mode
G92 E0 ; set extruder position to 0
M140 S85 ; start bed heating up
M109 R170 ; soften filament before homing Z
G28 ; Home all axis
G1 E-30 F100 ; retract filament
M109 R170 ; wait for extruder to reach wiping temp
G1 X-15 Y100 F3000 ; move above wiper pad
G1 Z1 ; push nozzle into wiper
G1 X-17 Y95 F1000 ; slow wipe
G1 X-17 Y90 F1000 ; slow wipe
G1 X-17 Y85 F1000 ; slow wipe
G1 X-15 Y90 F1000 ; slow wipe
G1 X-17 Y80 F1000 ; slow wipe
G1 X-15 Y95 F1000 ; slow wipe
G1 X-17 Y75 F2000 ; fast wipe
G1 X-15 Y65 F2000 ; fast wipe
G1 X-17 Y70 F2000 ; fast wipe
G1 X-15 Y60 F2000 ; fast wipe
G1 X-17 Y55 F2000 ; fast wipe
G1 X-15 Y50 F2000 ; fast wipe
G1 X-17 Y40 F2000 ; fast wipe
G1 X-15 Y45 F2000 ; fast wipe
G1 X-17 Y35 F2000 ; fast wipe
G1 X-15 Y40 F2000 ; fast wipe
G1 X-17 Y70 F2000 ; fast wipe
G1 X-15 Y30 Z2 F2000 ; fast wipe
G1 X-17 Y35 F2000 ; fast wipe
G1 X-15 Y25 F2000 ; fast wipe
G1 X-17 Y30 F2000 ; fast wipe
G1 X-15 Y25 Z1.5 F1000 ; slow wipe
G1 X-17 Y23 F1000 ; slow wipe
G1 Z10 ; raise extruder
M109 R170 ; wait for extruder to reach probe temp
G1 X-9 Y-9 ; move above first probe point
M204 S100 ; set probing acceleration
G29 ; start auto-leveling sequence
M420 S1 ; activate bed level matrix
M425 Z			     ; use measured Z backlash for compensation
M425 Z F0		     ; turn off measured Z backlash compensation. (if activated in the quality settings, this command will automatically be ignored)
M204 S500 ; restore standard acceleration
G1 X0 Y0 Z15 F5000 ; move up off last probe point
G4 S1 ; pause
M400 ; wait for moves to finish
M117 Heating... ; progress indicator message on LCD
M109 R235 ; wait for extruder to reach printing temp
M190 S85 ; wait for bed to reach printing temp
G1 Z2 E0 F75 ; prime tiny bit of filament into the nozzle
M117 TAZ 6 Printing... ; progress indicator message on LCD

M221 S100
;LAYER_COUNT:40
;LAYER:0
M107
G0 F2625 X130.615 Y130.479 Z0.425
;TYPE:SKIRT
G1 F900 X131.088 Y130.085 E0.01948
G1 X131.609 Y129.756 E0.03898
G1 X132.168 Y129.496 E0.05849
G1 X132.756 Y129.312 E0.07799
G1 X133.362 Y129.205 E0.09746
G1 X133.883 Y129.176 E0.11397
G1 X146.018 Y129.176 E0.49798
G1 X146.633 Y129.216 E0.51748
G1 X147.237 Y129.335 E0.53697
G1 X147.821 Y129.532 E0.55647
G1 X148.375 Y129.802 E0.57597
G1 X148.889 Y130.142 E0.59547
G1 X149.355 Y130.545 E0.61497
G1 X149.764 Y131.005 E0.63445
G1 X150.021 Y131.37 E0.64857
G1 X152.849 Y135.799 E0.81486
G1 X153.147 Y136.338 E0.83435
G1 X153.372 Y136.912 E0.85386
G1 X153.52 Y137.51 E0.87336
G1 X153.596 Y138.314 E0.89891
G1 X153.624 Y141.556 E1.00151
G1 X153.589 Y142.171 E1.021
G1 X153.475 Y142.777 E1.04052
G1 X153.284 Y143.362 E1.05999
G1 X152.88 Y144.15 E1.08801
G1 X150.026 Y148.628 E1.25605
G1 X149.661 Y149.125 E1.27557
G1 X149.236 Y149.571 E1.29506
G1 X148.757 Y149.957 E1.31453
G1 X148.231 Y150.279 E1.33404
G1 X147.668 Y150.53 E1.35355
G1 X147.078 Y150.706 E1.37303
G1 X146.47 Y150.804 E1.39252
G1 X146.02 Y150.825 E1.40678
G1 X133.882 Y150.824 E1.79088
G1 X133.267 Y150.784 E1.81039
G1 X132.662 Y150.665 E1.8299
G1 X132.078 Y150.468 E1.8494
G1 X131.525 Y150.198 E1.86888
G1 X131.011 Y149.858 E1.88838
G1 X130.545 Y149.455 E1.90787
G1 X130.136 Y148.994 E1.92738
G1 X129.837 Y148.564 E1.94395
G1 X127.08 Y144.086 E2.11036
G1 X126.792 Y143.542 E2.12984
G1 X126.576 Y142.965 E2.14933
G1 X126.438 Y142.364 E2.16885
G1 X126.375 Y141.583 E2.19364
G1 X126.384 Y138.373 E2.29522
G1 X126.426 Y137.758 E2.31473
G1 X126.547 Y137.154 E2.33422
G1 X126.745 Y136.57 E2.35374
G1 X127.09 Y135.894 E2.37775
G1 X129.839 Y131.434 E2.54355
G1 X130.196 Y130.931 E2.56306
G1 X130.615 Y130.479 E2.58257
G0 F2625 X131.005 Y130.799
G1 F900 X131.46 Y130.435 E2.60101
G1 X131.96 Y130.136 E2.61944
G1 X132.497 Y129.908 E2.6379
G1 X133.059 Y129.757 E2.65632
G1 X133.883 Y129.676 E2.68252
G1 X146.018 Y129.676 E3.06653
G1 X146.599 Y129.716 E3.08496
G1 X147.17 Y129.835 E3.10342
G1 X147.719 Y130.031 E3.12186
G1 X148.235 Y130.3 E3.14028
G1 X148.711 Y130.638 E3.15875
G1 X149.135 Y131.037 E3.17718
G1 X149.6 Y131.639 E3.20125
G1 X152.428 Y136.068 E3.36754
G1 X152.707 Y136.579 E3.38596
G1 X152.914 Y137.124 E3.40441
G1 X153.044 Y137.692 E3.42285
G1 X153.096 Y138.318 E3.44273
G1 X153.124 Y141.56 E3.54532
G1 X153.089 Y142.142 E3.56377
G1 X152.975 Y142.713 E3.5822
G1 X152.783 Y143.264 E3.60066
G1 X152.458 Y143.881 E3.62273
G1 X149.604 Y148.359 E3.79077
G1 X149.258 Y148.828 E3.80921
G1 X148.851 Y149.245 E3.82765
G1 X148.391 Y149.602 E3.84608
G1 X147.886 Y149.894 E3.86454
G1 X147.346 Y150.113 E3.88298
G1 X146.781 Y150.256 E3.90142
G1 X146.02 Y150.325 E3.9256
G1 X133.882 Y150.324 E4.30971
G1 X133.3 Y150.284 E4.32817
G1 X132.73 Y150.165 E4.3466
G1 X132.181 Y149.969 E4.36504
G1 X131.664 Y149.699 E4.3835
G1 X131.189 Y149.362 E4.40193
G1 X130.765 Y148.963 E4.42035
G1 X130.263 Y148.302 E4.44662
G1 X127.506 Y143.824 E4.61303
G1 X127.235 Y143.308 E4.63147
G1 X127.037 Y142.76 E4.64991
G1 X126.917 Y142.19 E4.66834
G1 X126.875 Y141.584 E4.68757
G1 X126.884 Y138.374 E4.78915
G1 X126.926 Y137.793 E4.80758
G1 X127.046 Y137.223 E4.82601
G1 X127.244 Y136.674 E4.84448
G1 X127.516 Y136.156 E4.863
G1 X130.265 Y131.696 E5.02879
G1 X130.604 Y131.222 E5.04723
G1 X131.005 Y130.799 E5.06567
G0 F2625 X131.393 Y131.122
G1 F900 X131.827 Y130.79 E5.08297
G1 X132.306 Y130.524 E5.1003
G1 X132.818 Y130.33 E5.11763
G1 X133.353 Y130.214 E5.13495
G1 X133.883 Y130.176 E5.15177
G1 X146.018 Y130.176 E5.53578
G1 X146.564 Y130.216 E5.5531
G1 X147.098 Y130.335 E5.57042
G1 X147.609 Y130.53 E5.58772
G1 X148.087 Y130.798 E5.60507
G1 X148.52 Y131.133 E5.62239
G1 X148.9 Y131.527 E5.63971
G1 X149.179 Y131.908 E5.65466
G1 X152.007 Y136.337 E5.82095
G1 X152.267 Y136.818 E5.83825
G1 X152.454 Y137.333 E5.85559
G1 X152.564 Y137.869 E5.8729
G1 X152.596 Y138.323 E5.8873
G1 X152.624 Y141.565 E5.9899
G1 X152.589 Y142.111 E6.00721
G1 X152.474 Y142.646 E6.02453
G1 X152.283 Y143.159 E6.04185
G1 X152.036 Y143.612 E6.05818
G1 X149.182 Y148.09 E6.22622
G1 X148.855 Y148.529 E6.24354
G1 X148.468 Y148.916 E6.26086
G1 X148.028 Y149.242 E6.27819
G1 X147.546 Y149.501 E6.29551
G1 X147.031 Y149.686 E6.31282
G1 X146.494 Y149.795 E6.33016
G1 X146.02 Y149.825 E6.34519
G1 X133.882 Y149.824 E6.7293
G1 X133.336 Y149.784 E6.74662
G1 X132.802 Y149.665 E6.76393
G1 X132.29 Y149.469 E6.78128
G1 X131.813 Y149.202 E6.79858
G1 X131.38 Y148.867 E6.81591
G1 X131 Y148.473 E6.83323
G1 X130.689 Y148.04 E6.8501
G1 X127.932 Y143.562 E7.01651
G1 X127.68 Y143.076 E7.03383
G1 X127.501 Y142.559 E7.05114
G1 X127.399 Y142.021 E7.06847
G1 X127.375 Y141.585 E7.08229
G1 X127.384 Y138.375 E7.18387
G1 X127.425 Y137.83 E7.20117
G1 X127.546 Y137.296 E7.21849
G1 X127.743 Y136.785 E7.23582
G1 X127.942 Y136.418 E7.24903
G1 X130.691 Y131.958 E7.41483
G1 X131.011 Y131.515 E7.43212
G1 X131.393 Y131.122 E7.44946
G0 F2625 X131.778 Y131.45
G1 F900 X132.191 Y131.151 E7.4656
G1 X132.645 Y130.921 E7.4817
G1 X133.13 Y130.764 E7.49784
G1 X133.883 Y130.676 E7.52183
G1 X146.018 Y130.676 E7.90584
G1 X146.526 Y130.716 E7.92196
G1 X147.021 Y130.835 E7.93807
G1 X147.492 Y131.03 E7.9542
G1 X147.927 Y131.296 E7.97034
G1 X148.314 Y131.626 E7.98643
G1 X148.757 Y132.177 E8.00881
G1 X151.585 Y136.606 E8.1751
G1 X151.825 Y137.056 E8.19123
G1 X151.991 Y137.537 E8.20734
G1 X152.081 Y138.039 E8.22348
G1 X152.096 Y138.327 E8.2326
G1 X152.124 Y141.569 E8.3352
G1 X152.088 Y142.077 E8.35131
G1 X151.974 Y142.574 E8.36745
G1 X151.783 Y143.046 E8.38356
G1 X151.615 Y143.344 E8.39439
G1 X148.761 Y147.822 E8.56243
G1 X148.454 Y148.229 E8.57856
G1 X148.088 Y148.583 E8.59467
G1 X147.67 Y148.875 E8.61081
G1 X147.212 Y149.098 E8.62693
G1 X146.725 Y149.248 E8.64305
G1 X146.02 Y149.325 E8.6655
G1 X133.882 Y149.324 E9.0496
G1 X133.374 Y149.284 E9.06573
G1 X132.878 Y149.165 E9.08187
G1 X132.408 Y148.97 E9.09797
G1 X131.973 Y148.704 E9.11411
G1 X131.585 Y148.374 E9.13022
G1 X131.114 Y147.778 E9.15426
G1 X128.357 Y143.3 E9.32067
G1 X128.125 Y142.846 E9.33681
G1 X127.967 Y142.362 E9.35292
G1 X127.886 Y141.859 E9.36904
G1 X127.875 Y141.587 E9.37765
G1 X127.884 Y138.377 E9.47924
G1 X127.925 Y137.869 E9.49536
G1 X128.046 Y137.374 E9.51149
G1 X128.242 Y136.904 E9.5276
G1 X128.367 Y136.681 E9.53569
G1 X131.116 Y132.221 E9.70148
G1 X131.417 Y131.809 E9.71763
G1 X131.778 Y131.45 E9.73374
G1 F600 E8.73374
G0 F2625 X134.14 Y133.251
G0 X134.14 Y134.18
G0 X134.48 Y134.515
G0 X134.55 Y134.585
;TYPE:WALL-OUTER
G1 F600 E9.73374
G1 F900 X134.55 Y138.649 E9.86235
G1 X134.55 Y141.349 E9.94779
G1 X134.55 Y145.361 E10.07475
G1 X145.353 Y145.361 E10.41661
G1 X145.353 Y141.349 E10.54357
G1 X145.353 Y138.649 E10.62901
G1 X145.353 Y134.585 E10.75761
G1 X134.55 Y134.585 E11.09947
G0 F2625 X134.55 Y134.835
G0 X134.45 Y134.835
G0 X134.154 Y138.677
G0 X132.289 Y138.971
G0 X132.312 Y139.068
G1 F900 X132.118 Y139.146 E11.10609
G1 X132.066 Y139.167 E11.10786
G1 X131.879 Y139.301 E11.11514
G1 X131.847 Y139.34 E11.11674
G1 X131.72 Y139.494 E11.12305
G1 X131.618 Y139.722 E11.13096
G1 X131.577 Y139.968 E11.13885
G1 X131.601 Y140.216 E11.14674
G1 X131.69 Y140.45 E11.15466
G1 X131.835 Y140.653 E11.16255
G1 X131.858 Y140.672 E11.1635
G1 X132.028 Y140.811 E11.17045
G1 X132.119 Y140.852 E11.1736
G1 X132.255 Y140.914 E11.17833
G1 X132.502 Y140.955 E11.18626
G1 X132.751 Y140.93 E11.19418
G1 X132.806 Y140.909 E11.19604
G1 X132.837 Y140.922 E11.1971
G1 X133.085 Y140.955 E11.20502
G1 X133.332 Y140.923 E11.2129
G1 X133.505 Y140.852 E11.21882
G1 X133.563 Y140.828 E11.22081
G1 X133.761 Y140.675 E11.22872
G1 X133.914 Y140.477 E11.23664
G1 X134.009 Y140.246 E11.24455
G1 X134.041 Y139.999 E11.25243
G1 X134.009 Y139.752 E11.26031
G1 X133.914 Y139.521 E11.26821
G1 X133.761 Y139.323 E11.27613
G1 X133.563 Y139.17 E11.28405
G1 X133.505 Y139.146 E11.28604
G1 X133.332 Y139.075 E11.29195
G1 X133.085 Y139.043 E11.29984
G1 X132.809 Y139.084 E11.30867
G1 X132.563 Y139.043 E11.31656
G1 X132.312 Y139.068 E11.32454
G0 F2625 X132.118 Y139.146
G0 X132.08 Y139.161
G0 X132.043 Y139.069
G0 X132.564 Y139.004
G0 X134.509 Y139.005
G0 X134.522 Y134.557
G0 X145.381 Y134.557
G0 X145.707 Y138.719
G0 X145.777 Y138.649
G1 F900 X146.551 Y138.649 E11.34903
G1 X146.755 Y138.649 E11.35549
G1 X146.998 Y138.649 E11.36318
G1 X147.154 Y138.649 E11.36811
G1 X147.413 Y138.649 E11.37631
G1 X147.664 Y138.649 E11.38425
G1 X147.9 Y138.649 E11.39172
G1 X147.904 Y138.649 E11.39185
G1 X148.636 Y138.649 E11.41501
G1 X148.636 Y139.298 E11.43555
G1 X148.636 Y139.476 E11.44118
G1 X148.636 Y139.701 E11.4483
G1 X148.636 Y139.946 E11.45606
G1 X148.636 Y140.196 E11.46397
G1 X148.636 Y140.431 E11.4714
G1 X148.636 Y140.637 E11.47792
G1 X148.636 Y140.684 E11.47941
G1 X148.636 Y141.349 E11.50045
G1 X147.894 Y141.349 E11.52393
G1 X147.766 Y141.349 E11.52798
G1 X147.52 Y141.349 E11.53577
G1 X147.271 Y141.349 E11.54365
G1 X147.166 Y141.349 E11.54697
G1 X147.131 Y141.349 E11.54808
G1 X146.87 Y141.349 E11.55634
G1 X146.63 Y141.349 E11.56393
G1 X146.557 Y141.349 E11.56624
G1 X145.777 Y141.349 E11.59093
G1 X145.777 Y145.361 E11.69859
G1 X145.777 Y145.834 E11.71356
G1 X145.353 Y145.834 E11.72697
G1 X134.55 Y145.834 E12.05037
G1 X134.126 Y145.834 E12.06379
G1 X134.126 Y145.361 E12.07876
G1 X134.126 Y141.349 E12.18642
G1 X133.519 Y141.349 E12.20563
G1 X133.332 Y141.349 E12.21069
G1 X133.085 Y141.349 E12.21589
G1 X132.837 Y141.349 E12.22041
G1 X132.806 Y141.349
G1 X132.751 Y141.349 E12.22056
G1 X132.502 Y141.349 E12.22571
G1 X132.255 Y141.349 E12.23086
G1 X132.105 Y141.349 E12.23531
G1 X131.364 Y141.349 E12.25876
G1 X131.364 Y140.683 E12.27983
G1 X131.364 Y140.653 E12.28076
G1 X131.364 Y140.45 E12.283
G1 X131.364 Y140.216
G1 X131.364 Y139.968
G1 X131.364 Y139.722
G1 X131.364 Y139.494 E12.28366
G1 X131.364 Y139.294 E12.28913
G1 X131.364 Y138.649 E12.30954
G1 X132.103 Y138.649 E12.33293
G1 X132.312 Y138.649 E12.33856
G1 X132.563 Y138.649 E12.34383
G1 X132.809 Y138.649 E12.3483
G1 X133.085 Y138.649 E12.35477
G1 X133.332 Y138.649 E12.35988
G1 X133.519 Y138.649 E12.36537
G1 X134.126 Y138.649 E12.38457
G1 X134.126 Y134.585 E12.49363
G1 X134.126 Y134.166 E12.50689
G1 X134.55 Y134.166 E12.52031
G1 X145.353 Y134.166 E12.80679
G1 X145.777 Y134.166 E12.8202
G1 X145.777 Y134.585 E12.83346
G1 X145.777 Y138.649 E12.94252
G0 F2625 X146.027 Y138.649
G0 X146.027 Y138.749
G0 X145.978 Y140.185
G0 X146.199 Y140.639
G0 X146.537 Y140.866
G0 X147.156 Y141.011
G0 X147.131 Y140.915
G1 F900 X147.166 Y140.898 E12.94318
G1 X147.271 Y140.935 E12.945
G1 X147.52 Y140.954 E12.94936
G1 X147.766 Y140.908 E12.95562
G1 X147.881 Y140.853 E12.95942
G1 X147.991 Y140.799 E12.9633
G1 X148.145 Y140.667 E12.96972
G1 X148.18 Y140.637 E12.97112
G1 X148.321 Y140.431 E12.97534
G1 X148.404 Y140.196
G1 X148.423 Y139.946
G1 X148.377 Y139.701
G1 X148.268 Y139.476 E12.97704
G1 X148.152 Y139.341 E12.98197
G1 X148.105 Y139.286 E12.98426
G1 X147.903 Y139.148 E12.992
G1 X147.9 Y139.146 E12.99211
G1 X147.664 Y139.063 E12.99843
G1 X147.413 Y139.044 E13.00293
G1 X147.154 Y139.098 E13.00942
G1 X146.998 Y139.066 E13.01253
G1 X146.755 Y139.082 E13.0181
G1 X146.562 Y139.147 E13.02412
G1 X146.523 Y139.16 E13.02542
G1 X146.32 Y139.294 E13.03312
G1 X146.159 Y139.477 E13.04083
G1 X146.049 Y139.695 E13.04856
G1 X146.001 Y139.935 E13.0563
G1 X146.017 Y140.178 E13.06401
G1 X146.095 Y140.41 E13.07176
G1 X146.229 Y140.613 E13.07945
G1 X146.412 Y140.774 E13.08717
G1 X146.565 Y140.852 E13.0926
G1 X146.63 Y140.884 E13.09481
G1 X146.87 Y140.932 E13.10068
G1 X147.131 Y140.915 E13.10731
G0 F2625 X147.166 Y140.898
G0 X147.271 Y140.935
G0 X147.372 Y140.942
G0 X148.133 Y141.062
G1 F900 X148.34 Y140.916 E13.10952
G0 F2625 X148.286 Y140.862
G0 X148.444 Y140.036
G0 X148.395 Y139.203
;TYPE:SKIN
G1 F900 X148.081 Y138.889 E13.11654
G0 F2625 X146.386 Y138.962
G0 X146.349 Y138.925
G1 F900 X146.066 Y138.995 E13.11974
G1 X145.805 Y139.088 E13.12659
G1 X145.732 Y139.368 E13.13419
G1 X145.689 Y139.679 E13.13956
G1 X145.681 Y140.025 E13.14376
G1 X145.789 Y140.486 E13.15018
M104 S230
G1 X145.824 Y140.875 E13.15984
G1 X146.345 Y141.042 E13.16653
G0 F2625 X145.705 Y141.108
G1 F900 X145.591 Y140.995 E13.16906
G0 F2625 X145.381 Y145.389
G0 X134.522 Y145.389
G0 X134.309 Y141.027
G0 X134.163 Y140.88
G1 F900 X133.94 Y141.011 E13.17452
G1 X133.658 Y141.083 E13.17724
G0 F2625 X134.232 Y140.596
G1 F900 X134.278 Y140.289 E13.17962
G0 F2625 X134.226 Y139.53
G1 F900 X134.123 Y139.073 E13.18561
G0 F2625 X133.938 Y138.887
G0 X131.91 Y138.981
G0 X131.863 Y138.934
G1 F900 X131.655 Y139.079 E13.18779
G0 F2625 X131.707 Y139.131
G0 X131.555 Y139.883
G0 X131.608 Y140.801
G1 F900 X131.915 Y141.108 E13.19466
G0 F2625 X131.662 Y141.158
G0 X131.538 Y139.967
G0 X131.686 Y139.473
G0 X132.047 Y139.132
G0 X132.71 Y138.685
G0 X134.154 Y138.677
G0 X134.48 Y134.515
G0 X134.55 Y134.585
;TIME_ELAPSED:35.881687
;LAYER:1
M140 S85
M221 S100
M106 S76.5
G0 F6562.5 X134.55 Y134.585 Z0.675
;TYPE:WALL-OUTER
G1 F643.9 X134.55 Y138.649 E13.27031
G1 X134.55 Y141.349 E13.32057
G1 X134.55 Y145.361 E13.39525
G1 X145.353 Y145.361 E13.59634
G1 X145.353 Y141.349 E13.67103
G1 X145.353 Y138.649 E13.72129
G1 X145.353 Y134.585 E13.79694
G1 X134.55 Y134.585 E13.99803
G0 F6562.5 X134.55 Y134.835
G0 X134.45 Y134.835
G0 X134.154 Y138.677
G0 X133.085 Y138.943
G0 X133.085 Y139.043
G1 F643.9 X132.809 Y139.084 E14.00322
G1 X132.563 Y139.043 E14.00787
G1 X132.315 Y139.067 E14.0125
G1 X132.107 Y139.146 E14.01665
G1 X132.081 Y139.156 E14.01716
G1 X131.879 Y139.301 E14.02179
G1 X131.847 Y139.34 E14.02273
G1 X131.72 Y139.494 E14.02645
G1 X131.618 Y139.722 E14.0311
G1 X131.577 Y139.968 E14.03574
G1 X131.601 Y140.216 E14.04038
G1 X131.69 Y140.45 E14.04504
G1 X131.835 Y140.653 E14.04968
G1 X131.858 Y140.672 E14.05024
