;Generated by Cura LulzBot Edition GCodeWriter Version: 3.2.27
;FLAVOR:Marlin
;TIME:267
;Filament used: 0.0278821m
;Layer height: 0.25
;Generated with Cura_SteamEngine 3.2.27
M82 ;absolute extrusion mode
;This G-Code has been generated specifically for the LulzBot TAZ 6 with standard extruder
M75 ; start GLCD timer
G26 ; clear potential 'probe fail' condition
G21 ; set units to Millimetres
M107 ; disable fans
M420 S0 ; disable previous leveling matrix
G90 ; absolute positioning
M82 ; set extruder to absolute mode
G92 E0 ; set extruder position to 0
M140 S85 ; start bed heating up
M109 R170 ; soften filament before homing Z
G28 ; Home all axis
G1 E-30 F100 ; retract filament
M109 R170 ; wait for extruder to reach wiping temp
G1 X-15 Y100 F3000 ; move above wiper pad
G1 Z1 ; push nozzle into wiper
G1 X-17 Y95 F1000 ; slow wipe
G1 X-17 Y90 F1000 ; slow wipe
G1 X-17 Y85 F1000 ; slow wipe
G1 X-15 Y90 F1000 ; slow wipe
G1 X-17 Y80 F1000 ; slow wipe
G1 X-15 Y95 F1000 ; slow wipe
G1 X-17 Y75 F2000 ; fast wipe
G1 X-15 Y65 F2000 ; fast wipe
G1 X-17 Y70 F2000 ; fast wipe
G1 X-15 Y60 F2000 ; fast wipe
G1 X-17 Y55 F2000 ; fast wipe
G1 X-15 Y50 F2000 ; fast wipe
G1 X-17 Y40 F2000 ; fast wipe
G1 X-15 Y45 F2000 ; fast wipe
G1 X-17 Y35 F2000 ; fast wipe
G1 X-15 Y40 F2000 ; fast wipe
G1 X-17 Y70 F2000 ; fast wipe
G1 X-15 Y30 Z2 F2000 ; fast wipe
G1 X-17 Y35 F2000 ; fast wipe
G1 X-15 Y25 F2000 ; fast wipe
G1 X-17 Y30 F2000 ; fast wipe
G1 X-15 Y25 Z1.5 F1000 ; slow wipe
G1 X-17 Y23 F1000 ; slow wipe
G1 Z10 ; raise extruder
M109 R170 ; wait for extruder to reach probe temp
G1 X-9 Y-9 ; move above first probe point
M204 S100 ; set probing acceleration
G29 ; start auto-leveling sequence
M420 S1 ; activate bed level matrix
M425 Z			     ; use measured Z backlash for compensation
M425 Z F0		     ; turn off measured Z backlash compensation. (if activated in the quality settings, this command will automatically be ignored)
M204 S500 ; restore standard acceleration
G1 X0 Y0 Z15 F5000 ; move up off last probe point
G4 S1 ; pause
M400 ; wait for moves to finish
M117 Heating... ; progress indicator message on LCD
M109 R235 ; wait for extruder to reach printing temp
M190 S85 ; wait for bed to reach printing temp
G1 Z2 E0 F75 ; prime tiny bit of filament into the nozzle
M117 TAZ 6 Printing... ; progress indicator message on LCD

M221 S100
;LAYER_COUNT:48
;LAYER:0
M107
G0 F2625 X132.828 Y132.743 Z0.425
;TYPE:SKIRT
G1 F900 X133.319 Y132.322 E0.02047
G1 X133.859 Y131.963 E0.04099
G1 X134.439 Y131.675 E0.06148
G1 X135.05 Y131.459 E0.08199
G1 X135.683 Y131.321 E0.10249
G1 X136.487 Y131.259 E0.12801
G1 X143.462 Y131.26 E0.34873
G1 X144.108 Y131.3 E0.36921
G1 X144.745 Y131.419 E0.38972
G1 X145.362 Y131.616 E0.41021
G1 X145.95 Y131.888 E0.43072
G1 X146.501 Y132.229 E0.45122
G1 X147.005 Y132.636 E0.47172
G1 X147.455 Y133.102 E0.49222
G1 X147.889 Y133.69 E0.51535
G1 X148.644 Y134.876 E0.55984
G1 X149.525 Y136.255 E0.61162
G1 X149.84 Y136.821 E0.63212
G1 X150.082 Y137.422 E0.65262
G1 X150.248 Y138.048 E0.67312
G1 X150.336 Y138.689 E0.69359
G1 X150.351 Y139.078 E0.70591
G1 X150.352 Y140.913 E0.76398
G1 X150.312 Y141.56 E0.78449
G1 X150.193 Y142.196 E0.80497
G1 X149.997 Y142.814 E0.82548
G1 X149.726 Y143.402 E0.84597
G1 X149.53 Y143.737 E0.85825
G1 X147.891 Y146.31 E0.95479
G1 X147.51 Y146.833 E0.97527
G1 X147.067 Y147.306 E0.99578
G1 X146.57 Y147.721 E1.01626
G1 X146.025 Y148.072 E1.03678
G1 X145.441 Y148.352 E1.05727
G1 X144.827 Y148.559 E1.07778
G1 X144.192 Y148.688 E1.09828
G1 X143.464 Y148.739 E1.12138
G1 X136.487 Y148.74 E1.34216
G1 X135.84 Y148.7 E1.36268
G1 X135.204 Y148.581 E1.38315
G1 X134.586 Y148.384 E1.40368
G1 X133.998 Y148.113 E1.42417
G1 X133.448 Y147.771 E1.44466
G1 X132.944 Y147.365 E1.46514
G1 X132.493 Y146.899 E1.48566
G1 X132.018 Y146.247 E1.51119
G1 X130.43 Y143.674 E1.60687
G1 X130.125 Y143.103 E1.62736
G1 X129.892 Y142.499 E1.64784
G1 X129.735 Y141.87 E1.66836
G1 X129.657 Y141.227 E1.68885
G1 X129.648 Y140.889 E1.69955
G1 X129.658 Y139.038 E1.75813
G1 X129.702 Y138.391 E1.77865
G1 X129.824 Y137.755 E1.79914
G1 X130.024 Y137.139 E1.81964
G1 X130.44 Y136.309 E1.84902
G1 X132.018 Y133.752 E1.9441
G1 X132.392 Y133.223 E1.9646
G1 X132.828 Y132.743 E1.98512
G0 F2625 X133.22 Y133.06
G1 F900 X133.693 Y132.667 E2.00458
G1 X134.214 Y132.337 E2.0241
G1 X134.773 Y132.079 E2.04358
G1 X135.361 Y131.894 E2.06309
G1 X135.968 Y131.787 E2.08259
G1 X136.487 Y131.759 E2.09904
G1 X143.462 Y131.76 E2.31976
G1 X144.076 Y131.8 E2.33924
G1 X144.681 Y131.919 E2.35875
G1 X145.265 Y132.116 E2.37825
G1 X145.818 Y132.386 E2.39773
G1 X146.332 Y132.726 E2.41723
G1 X146.798 Y133.13 E2.43674
G1 X147.207 Y133.59 E2.45622
G1 X147.468 Y133.959 E2.47053
G1 X148.223 Y135.145 E2.51502
G1 X149.104 Y136.524 E2.5668
G1 X149.401 Y137.063 E2.58627
G1 X149.626 Y137.637 E2.60578
G1 X149.775 Y138.235 E2.62529
G1 X149.851 Y139.078 E2.65207
G1 X149.852 Y140.913 E2.71014
G1 X149.812 Y141.528 E2.72964
G1 X149.694 Y142.133 E2.74915
G1 X149.497 Y142.717 E2.76865
G1 X149.108 Y143.468 E2.79542
G1 X147.469 Y146.041 E2.89195
G1 X147.105 Y146.538 E2.91145
G1 X146.68 Y146.984 E2.93094
G1 X146.201 Y147.371 E2.95043
G1 X145.675 Y147.693 E2.96995
G1 X145.112 Y147.943 E2.98944
G1 X144.522 Y148.119 E3.00892
G1 X143.914 Y148.218 E3.02842
G1 X143.464 Y148.239 E3.04267
G1 X136.487 Y148.24 E3.26346
G1 X135.872 Y148.2 E3.28296
G1 X135.267 Y148.081 E3.30247
G1 X134.683 Y147.885 E3.32197
G1 X134.13 Y147.614 E3.34146
G1 X133.616 Y147.275 E3.36094
G1 X133.15 Y146.871 E3.38046
G1 X132.74 Y146.411 E3.39996
G1 X132.444 Y145.985 E3.41637
G1 X130.856 Y143.412 E3.51205
G1 X130.567 Y142.868 E3.53155
G1 X130.351 Y142.291 E3.55104
G1 X130.211 Y141.69 E3.57057
G1 X130.148 Y140.891 E3.59593
G1 X130.158 Y139.04 E3.65451
G1 X130.201 Y138.426 E3.67399
G1 X130.324 Y137.822 E3.69349
G1 X130.523 Y137.239 E3.71299
G1 X130.866 Y136.571 E3.73675
G1 X132.444 Y134.014 E3.83183
G1 X132.801 Y133.512 E3.85133
G1 X133.22 Y133.06 E3.87083
G0 F2625 X133.61 Y133.38
G1 F900 X134.065 Y133.016 E3.88927
G1 X134.565 Y132.718 E3.90769
G1 X135.102 Y132.491 E3.92614
G1 X135.664 Y132.339 E3.94456
G1 X136.487 Y132.259 E3.97073
G1 X143.462 Y132.26 E4.19145
G1 X144.043 Y132.3 E4.20988
G1 X144.613 Y132.419 E4.2283
G1 X145.162 Y132.615 E4.24675
G1 X145.679 Y132.885 E4.26521
G1 X146.154 Y133.222 E4.28364
G1 X146.578 Y133.621 E4.30206
G1 X147.046 Y134.227 E4.32629
G1 X147.805 Y135.419 E4.37101
G1 X147.804 Y135.419 E4.37104
G1 X148.682 Y136.793 E4.42264
G1 X148.962 Y137.304 E4.44108
G1 X149.169 Y137.849 E4.45953
G1 X149.299 Y138.417 E4.47797
G1 X149.351 Y139.079 E4.49898
G1 X149.352 Y140.914 E4.55705
G1 X149.312 Y141.495 E4.57548
G1 X149.194 Y142.066 E4.59393
G1 X148.998 Y142.615 E4.61238
G1 X148.687 Y143.199 E4.63331
G1 X147.048 Y145.772 E4.72985
G1 X146.701 Y146.241 E4.74832
G1 X146.295 Y146.658 E4.76673
G1 X145.834 Y147.016 E4.7852
G1 X145.33 Y147.307 E4.80362
G1 X144.79 Y147.527 E4.82207
G1 X144.225 Y147.67 E4.84051
G1 X143.464 Y147.739 E4.8647
G1 X136.487 Y147.74 E5.08548
G1 X135.905 Y147.7 E5.10394
G1 X135.335 Y147.581 E5.12237
G1 X134.786 Y147.385 E5.14082
G1 X134.269 Y147.116 E5.15926
G1 X133.794 Y146.779 E5.17769
G1 X133.369 Y146.379 E5.19616
G1 X132.869 Y145.722 E5.22228
G1 X131.281 Y143.149 E5.31796
G1 X131.01 Y142.633 E5.33641
G1 X130.812 Y142.085 E5.35485
G1 X130.69 Y141.515 E5.37329
G1 X130.648 Y140.894 E5.39299
G1 X130.658 Y139.043 E5.45156
G1 X130.701 Y138.462 E5.47
G1 X130.823 Y137.892 E5.48845
G1 X131.022 Y137.344 E5.5069
G1 X131.291 Y136.834 E5.52514
G1 X132.869 Y134.277 E5.62023
G1 X133.209 Y133.803 E5.63869
G1 X133.61 Y133.38 E5.65713
G0 F2625 X133.997 Y133.704
G1 F900 X134.432 Y133.371 E5.67447
G1 X134.911 Y133.106 E5.69179
G1 X135.423 Y132.913 E5.7091
G1 X135.958 Y132.796 E5.72643
G1 X136.487 Y132.759 E5.74322
G1 X143.462 Y132.76 E5.96394
G1 X144.007 Y132.8 E5.98123
G1 X144.542 Y132.919 E5.99857
G1 X145.053 Y133.115 E6.01589
G1 X145.53 Y133.383 E6.03321
G1 X145.963 Y133.717 E6.05051
G1 X146.343 Y134.111 E6.06783
G1 X146.624 Y134.496 E6.08292
G1 X147.38 Y135.683 E6.12745
G1 X148.261 Y137.062 E6.17924
G1 X148.521 Y137.544 E6.19657
G1 X148.709 Y138.058 E6.21389
G1 X148.819 Y138.594 E6.2312
G1 X148.851 Y139.079 E6.24658
G1 X148.852 Y140.914 E6.30465
G1 X148.812 Y141.46 E6.32197
G1 X148.694 Y141.994 E6.33928
G1 X148.498 Y142.506 E6.35663
G1 X148.265 Y142.931 E6.37197
G1 X146.626 Y145.504 E6.4685
G1 X146.299 Y145.943 E6.48583
G1 X145.911 Y146.329 E6.50315
G1 X145.472 Y146.656 E6.52047
G1 X144.99 Y146.914 E6.53777
G1 X144.475 Y147.1 E6.5551
G1 X143.938 Y147.209 E6.57244
G1 X143.464 Y147.239 E6.58747
G1 X136.487 Y147.24 E6.80825
G1 X135.941 Y147.2 E6.82558
G1 X135.406 Y147.081 E6.84292
G1 X134.895 Y146.886 E6.86023
G1 X134.418 Y146.618 E6.87754
G1 X133.984 Y146.284 E6.89487
G1 X133.604 Y145.89 E6.91219
G1 X133.295 Y145.46 E6.92895
G1 X131.707 Y142.887 E7.02463
G1 X131.454 Y142.401 E7.04197
G1 X131.275 Y141.884 E7.05928
G1 X131.173 Y141.346 E7.07661
G1 X131.148 Y140.897 E7.09084
G1 X131.158 Y139.046 E7.14942
G1 X131.201 Y138.5 E7.16675
G1 X131.323 Y137.966 E7.18408
G1 X131.521 Y137.456 E7.2014
G1 X131.717 Y137.097 E7.21434
G1 X133.295 Y134.54 E7.30942
G1 X133.615 Y134.096 E7.32674
G1 X133.997 Y133.704 E7.34406
G0 F2625 X134.382 Y134.032
G1 F900 X134.795 Y133.733 E7.3602
G1 X135.25 Y133.503 E7.37633
G1 X135.735 Y133.347 E7.39245
G1 X136.486 Y133.259 E7.41638
G1 X143.461 Y133.26 E7.6371
G1 X143.969 Y133.3 E7.65323
G1 X144.465 Y133.419 E7.66937
G1 X144.936 Y133.614 E7.6855
G1 X145.37 Y133.88 E7.70161
G1 X145.758 Y134.211 E7.71775
G1 X146.202 Y134.764 E7.74019
G1 X146.959 Y135.952 E7.78477
G1 X147.84 Y137.331 E7.83655
G1 X148.08 Y137.781 E7.85269
G1 X148.246 Y138.262 E7.86879
G1 X148.335 Y138.764 E7.88493
G1 X148.351 Y139.079 E7.89491
G1 X148.352 Y140.914 E7.95298
G1 X148.312 Y141.422 E7.9691
G1 X148.194 Y141.918 E7.98524
G1 X147.999 Y142.389 E8.00137
G1 X147.843 Y142.662 E8.01132
G1 X146.204 Y145.235 E8.10786
G1 X145.898 Y145.642 E8.12397
G1 X145.531 Y145.996 E8.1401
G1 X145.114 Y146.288 E8.15621
G1 X144.656 Y146.512 E8.17235
G1 X144.169 Y146.661 E8.18846
G1 X143.463 Y146.739 E8.21094
G1 X136.486 Y146.74 E8.43173
G1 X135.979 Y146.7 E8.44782
G1 X135.483 Y146.581 E8.46396
G1 X135.012 Y146.387 E8.48008
G1 X134.578 Y146.121 E8.49619
G1 X134.19 Y145.79 E8.51233
G1 X133.72 Y145.197 E8.53627
G1 X132.132 Y142.624 E8.63195
G1 X131.9 Y142.171 E8.64806
G1 X131.74 Y141.687 E8.66419
G1 X131.659 Y141.184 E8.68031
G1 X131.648 Y140.899 E8.68934
G1 X131.658 Y139.048 E8.74792
G1 X131.701 Y138.541 E8.76402
G1 X131.822 Y138.046 E8.78014
G1 X132.142 Y137.359 E8.80412
G1 X133.72 Y134.802 E8.89921
G1 X134.021 Y134.391 E8.91533
G1 X134.382 Y134.032 E8.93144
G1 F600 E7.93144
G0 F2625 X136.741 Y135.835
G0 X136.741 Y136.764
G0 X136.689 Y136.709
G0 X136.759 Y136.779
;TYPE:WALL-OUTER
G1 F600 E8.93144
G1 F900 X136.759 Y139.329 E9.01214
G1 X136.759 Y139.431 E9.01536
G1 X136.759 Y139.534 E9.01862
G1 X136.759 Y139.671 E9.02296
G1 X136.759 Y139.83 E9.02799
G1 X136.759 Y139.999 E9.03334
G1 X136.759 Y140.169 E9.03872
G1 X136.759 Y140.328 E9.04375
G1 X136.759 Y140.465 E9.04808
G1 X136.759 Y140.568 E9.05134
G1 X136.759 Y140.67 E9.05457
G1 X136.759 Y143.19 E9.13432
G1 X143.186 Y143.19 E9.3377
G1 X143.186 Y140.67 E9.41744
G1 X143.186 Y140.534 E9.42175
G1 X143.186 Y140.423 E9.42526
G1 X143.186 Y140.283 E9.42969
G1 X143.186 Y140.123 E9.43475
G1 X143.186 Y139.989 E9.43899
G1 X143.186 Y139.797 E9.44507
G1 X143.186 Y139.64 E9.45004
G1 X143.186 Y139.513 E9.45406
G1 X143.186 Y139.329 E9.45988
G1 X143.186 Y136.779 E9.54057
G1 X136.759 Y136.779 E9.74395
G0 F2625 X136.759 Y137.029
G0 X136.659 Y137.029
G0 X136.72 Y137.05
G0 X136.762 Y137.065
G0 X143.147 Y139.399
G0 X143.217 Y139.329
G1 F900 X143.376 Y139.329 E9.74469
G1 X143.453 Y139.329
G1 X143.565 Y139.329 E9.74659
G1 X143.707 Y139.329 E9.75108
G1 X143.867 Y139.329 E9.75614
G1 X144.033 Y139.329 E9.7614
G1 X144.114 Y139.329 E9.76396
G1 X144.257 Y139.329 E9.76848
G1 X144.431 Y139.329 E9.77399
G1 X144.593 Y139.329 E9.77912
G1 X144.735 Y139.329 E9.78361
G1 X144.847 Y139.329 E9.78715
G1 X144.862 Y139.329 E9.78763
G1 X144.862 Y139.356
G1 X144.862 Y139.413 E9.78842
G1 X144.862 Y139.511 E9.79022
G1 X144.862 Y139.642 E9.79323
G1 X144.862 Y139.673 E9.79395
G1 X144.847 Y139.642
G1 X144.735 Y139.511
G1 X144.593 Y139.413
G1 X144.431 Y139.356
G1 X144.257 Y139.343
G1 X144.114 Y139.373
G1 X144.033 Y139.357
G1 X143.867 Y139.366
G1 X143.707 Y139.419
G1 X143.565 Y139.513
G1 X143.505 Y139.582
G1 X143.453 Y139.64
G1 X143.376 Y139.797
G1 X143.348 Y139.989
G1 X143.357 Y140.123
G1 X143.409 Y140.283
G1 X143.503 Y140.423
G1 X143.629 Y140.534 E9.79614
G1 X143.78 Y140.61 E9.80149
G1 X143.945 Y140.642 E9.80681
G1 X144.129 Y140.632 E9.81264
G1 X144.161 Y140.643 E9.81371
G1 X144.332 Y140.656 E9.81914
G1 X144.5 Y140.624 E9.82455
G1 X144.654 Y140.551 E9.82994
G1 X144.715 Y140.499 E9.83248
G1 X144.786 Y140.438 E9.83544
G1 X144.862 Y140.325 E9.83975
G1 X144.862 Y140.438
G1 X144.862 Y140.551
G1 X144.862 Y140.624
G1 X144.862 Y140.67
G1 X144.786 Y140.67
G1 X144.654 Y140.67
G1 X144.5 Y140.67
G1 X144.332 Y140.67
G1 X144.161 Y140.67
G1 X144.129 Y140.67
G1 X143.945 Y140.67
G1 X143.78 Y140.67
G1 X143.629 Y140.67
G1 X143.503 Y140.67
G1 X143.409 Y140.67
G1 X143.217 Y140.67
G1 X143.217 Y143.19 E9.84469
G1 X143.217 Y143.25 E9.84574
G1 X143.186 Y143.25
G1 X136.759 Y143.25 E9.87014
G1 X136.727 Y143.25 E9.87071
G1 X136.727 Y143.19
G1 X136.727 Y140.67 E9.87443
G1 X136.592 Y140.67 E9.8756
G1 X136.486 Y140.67 E9.87699
G1 X136.35 Y140.67 E9.8802
G1 X136.192 Y140.67 E9.8852
G1 X136.022 Y140.67 E9.89058
G1 X135.863 Y140.67 E9.89561
G1 X135.683 Y140.67 E9.9013
G1 X135.514 Y140.67 E9.90665
G1 X135.356 Y140.67 E9.91165
G1 X135.225 Y140.67 E9.9158
G1 X135.138 Y140.67 E9.91855
G1 X135.138 Y140.628
G1 X135.138 Y140.557
G1 X135.138 Y140.449 E9.9198
G1 X135.138 Y140.329 E9.92217
G1 X135.225 Y140.449
G1 X135.281 Y140.495
G1 X135.356 Y140.557
G1 X135.514 Y140.628
G1 X135.683 Y140.656
G1 X135.863 Y140.636
G1 X136.022 Y140.656
G1 X136.192 Y140.635
G1 X136.35 Y140.568
G1 X136.486 Y140.465
G1 X136.592 Y140.328
G1 X136.657 Y140.169
G1 X136.679 Y139.999
G1 X136.657 Y139.83
G1 X136.592 Y139.671
G1 X136.486 Y139.534
G1 X136.35 Y139.431 E9.92346
M104 S230
G1 X136.193 Y139.365 E9.92885
G1 X136.022 Y139.342 E9.93431
G1 X135.854 Y139.364 E9.93967
G1 X135.725 Y139.343 E9.9438
G1 X135.553 Y139.36 E9.94927
G1 X135.386 Y139.426 E9.95496
G1 X135.269 Y139.51 E9.95951
G1 X135.255 Y139.52 E9.96006
G1 X135.138 Y139.67 E9.96608
G1 X135.138 Y139.52
G1 X135.138 Y139.426
G1 X135.138 Y139.36
G1 X135.138 Y139.329
G1 X135.255 Y139.329
G1 X135.386 Y139.329
G1 X135.553 Y139.329
G1 X135.725 Y139.329
G1 X135.854 Y139.329
G1 X136.022 Y139.329
G1 X136.193 Y139.329
G1 X136.35 Y139.329
G1 X136.486 Y139.329
G1 X136.592 Y139.329
G1 X136.727 Y139.329
G1 X136.727 Y136.779 E9.97124
G1 X136.727 Y136.75 E9.97174
G1 X136.759 Y136.75
G1 X143.186 Y136.75 E9.98353
G1 X143.217 Y136.75 E9.98406
G1 X143.217 Y136.779
G1 X143.217 Y139.329 E9.98678
G0 F2625 X143.376 Y139.329
G0 X143.453 Y139.329
G0 X143.467 Y139.329
G0 X143.467 Y139.429
G0 X143.254 Y139.343
G0 X143.189 Y136.778
G0 X137.977 Y136.743
G0 X136.689 Y136.709
G0 X136.759 Y136.779
;TIME_ELAPSED:28.612538
;LAYER:1
M140 S85
M221 S100
M106 S76.5
G0 F6562.5 X136.759 Y136.779 Z0.675
;TYPE:WALL-OUTER
G1 F600 X136.759 Y139.329 E10.03425
G1 X136.759 Y139.431 E10.03615
G1 X136.759 Y139.534 E10.03806
G1 X136.759 Y139.671 E10.04061
G1 X136.759 Y139.83 E10.04357
G1 X136.759 Y139.999 E10.04672
G1 X136.759 Y140.169 E10.04988
G1 X136.759 Y140.328 E10.05284
G1 X136.759 Y140.465 E10.05539
G1 X136.759 Y140.568 E10.05731
G1 X136.759 Y140.67 E10.05921
G1 X136.759 Y143.19 E10.10612
G1 X143.186 Y143.19 E10.22575
G1 X143.186 Y140.67 E10.27266
G1 X143.186 Y140.534 E10.2752
G1 X143.186 Y140.423 E10.27726
G1 X143.186 Y140.283 E10.27987
G1 X143.186 Y140.123 E10.28285
G1 X143.186 Y139.989 E10.28534
G1 X143.186 Y139.797 E10.28891
G1 X143.186 Y139.64 E10.29184
G1 X143.186 Y139.513 E10.2942
G1 X143.186 Y139.329 E10.29763
G1 X143.186 Y136.779 E10.34509
G1 X136.759 Y136.779 E10.46473
